X:1
T:Title
%%score { ( 1 3 ) | ( 2 4 ) }
L:1/8
M:6/8
K:C
V:1 treble nm="Grand Piano"
V:3 treble 
V:2 bass 
V:4 bass 
V:1
 z3 z2[Q:1/4=100] [EG] | [EG]2 [EG] [EA]2 E | G3 C2 D | E2 E [DF]2 [CE] | %4
[M:5/8] [B,D]-[B,D]- [B,D]3 |[M:1/8] [DF] |[M:3/4] [DF]2 [DF] [CE]2 [B,D] | [CE]3 [EG]2 [EA] | %8
 B2 B B2 A |[M:5/8] [B,G]-[B,G]- [B,G]3 |[M:1/8] G |[M:3/4] A2 G [FA]2 [FB] | [Ec]3 [EG]2 [EG] | %13
 [Ec]2 [Gc] d2 G |[M:5/8] e-e- e3 |[M:1/8] [Ge] |[M:3/4] [^Ge]2 B d2 c | [Ac]3 [GB]2 A | %18
 G2 G A2 G |[M:5/8] G-G- G3 |[M:1/8] [G,FG] |[M:3/4] [Ee]2 B d2 c | [CAc]3 [CGB]2 [CFA] | %23
 [CEG]2 [CEA] [DFc]2 [FB] |[M:5/8] [Ec]-[Ec]- [Ec]3 |] %25
V:2
 z3 z2 [C,G,] | [C,G,]2 [C,G,] [C,G,]2 [C,G,C] | [E,G,C]3 [E,G,]2 [D,G,B,] | %3
 [C,G,C]2 [C,G,C] [B,,G,]2 [C,G,] |[M:5/8] [G,,G,]-[G,,G,]- [G,,G,]3 |[M:1/8] [G,,G,] | %6
[M:3/4] [G,,G,]2 [G,,G,] [G,,G,]2 [G,,G,] | [C,G,]3 [C,C]2 [C,G,] | %8
 [D,G,D]2 [D,G,D] [D,G,D]2 [D,^F,C] |[M:5/8] [G,,G,]-[G,,G,]- [G,,G,]3 |[M:1/8] [E,G,C] | %11
[M:3/4] [F,C]2 [E,G,C] [D,B,]2 [G,,G,] | [C,G,]3 [C,C]2 [C,C] | %13
 [C,G,]2 [E,C][K:treble] [G,B,G]2 [B,D] |[M:5/8] [CG]-[CG]- [CG]3 |[M:1/8][K:bass] [C,C] | %16
[M:3/4] [E,B,]2 [E,^G,E] [G,B,E]2 [A,E] | [F,C]3 [F,C]2[K:treble] [F,CF] | %18
 [G,CE]2 [G,CE] [G,B,F]2 [G,B,F] |[M:5/8][K:bass] B,3 z2 |[M:1/8] D, | %21
[M:3/4] [C,G,]2 [E,^G,E] [G,B,E]2 [A,E] | F,3 F,2 F, | G,2 G, G,,2 [G,,G,] | %24
[M:5/8] [C,G,]-[C,G,]- [C,G,]3 |] %25
V:3
 x6 | x6 | x6 | x6 |[M:5/8] x5 |[M:1/8] x |[M:3/4] x6 | x6 | x6 |[M:5/8] x5 |[M:1/8] x | %11
[M:3/4] x6 | x6 | x6 |[M:5/8] x5 |[M:1/8] x |[M:3/4] x6 | x6 | x6 |[M:5/8] z2 D C2 |[M:1/8] x | %21
[M:3/4] x6 | x6 | x6 |[M:5/8] x5 |] %25
V:4
 x6 | x6 | x6 | x6 |[M:5/8] x5 |[M:1/8] x |[M:3/4] x6 | x6 | x6 |[M:5/8] x5 |[M:1/8] x | %11
[M:3/4] x6 | x6 | x3[K:treble] x3 |[M:5/8] x5 |[M:1/8][K:bass] x |[M:3/4] x6 | x5[K:treble] x | %18
 x6 |[M:5/8][K:bass] [G,E]2 F, E,2 |[M:1/8] x |[M:3/4] x6 | x6 | x6 |[M:5/8] x5 |] %25

